assets/img/braze_icons/expand-02.svg

<svg fill="none" height="24" viewBox="0 0 24 24" width="24" xmlns="http://www.w3.org/2000/svg"><path d="m14 3c0-.55228.4477-1 1-1h6c.5523 0 1 .44772 1 1v6c0 .55229-.4477 1-1 1s-1-.44771-1-1v-3.58579l-14.58579 14.58579h3.58579c.55228 0 1 .4477 1 1s-.44772 1-1 1h-6c-.55228 0-1-.4477-1-1v-6c0-.5523.44772-1 1-1 .55229 0 1 .4477 1 1v3.5858l14.5858-14.5858h-3.5858c-.5523 0-1-.44772-1-1z" fill="#801ed7"/></svg>

<svg width="24" height="24" viewBox="0 0 24 24" fill="none" xmlns="http://www.w3.org/2000/svg">
<path d="M14 3C14 2.44772 14.4477 2 15 2H21C21.5523 2 22 2.44772 22 3V9C22 9.55229 21.5523 10 21 10C20.4477 10 20 9.55229 20 9V5.41421L5.41421 20H9C9.55228 20 10 20.4477 10 21C10 21.5523 9.55228 22 9 22H3C2.44772 22 2 21.5523 2 21V15C2 14.4477 2.44772 14 3 14C3.55229 14 4 14.4477 4 15L4 18.5858L18.5858 4H15C14.4477 4 14 3.55228 14 3Z" fill="#801ED7"/>
</svg>
